en/_assets/wiki/svg/parent-table.svg

<svg xmlns="http://www.w3.org/2000/svg" xmlns:xlink="http://www.w3.org/1999/xlink" width="16" height="16" class="yc-icon GridTableSettingsPopup-ItemIcon" fill="currentColor" stroke="none" aria-hidden="true"><svg viewBox="0 0 16 16" fill="none" xmlns="http://www.w3.org/2000/svg"><path d="M14.1191 1.625L9.98047 1.65039C9.77734 1.65039 9.625 1.80273 9.625 2.00586V2.84375C9.625 3.04688 9.77734 3.22461 9.98047 3.22461L11.8594 3.14844L11.9102 3.19922L4.82617 10.2832C4.77539 10.334 4.72461 10.4355 4.72461 10.4863C4.72461 10.5625 4.77539 10.6641 4.82617 10.7148L5.41016 11.2988C5.46094 11.3496 5.5625 11.4004 5.63867 11.4004C5.68945 11.4004 5.79102 11.3496 5.8418 11.2988L12.9258 4.21484L12.9766 4.26562L12.9004 6.14453C12.9004 6.34766 13.0781 6.5 13.2812 6.5H14.1191C14.3223 6.5 14.4746 6.34766 14.4746 6.14453L14.5 2.00586C14.5 1.80273 14.3223 1.625 14.1191 1.625ZM12.4688 8.9375H12.0625C11.834 8.9375 11.6562 9.14062 11.6562 9.34375V13.2539C11.6562 13.3555 11.5801 13.4062 11.5039 13.4062H2.87109C2.76953 13.4062 2.71875 13.3555 2.71875 13.2539V4.62109C2.71875 4.54492 2.76953 4.46875 2.87109 4.46875H6.78125C6.98438 4.46875 7.1875 4.29102 7.1875 4.0625V3.65625C7.1875 3.45312 6.98438 3.25 6.78125 3.25H2.71875C2.0332 3.25 1.5 3.80859 1.5 4.46875V13.4062C1.5 14.0918 2.0332 14.625 2.71875 14.625H11.6562C12.3164 14.625 12.875 14.0918 12.875 13.4062V9.34375C12.875 9.14062 12.6719 8.9375 12.4688 8.9375Z" fill="currentColor"></path></svg></svg>

<svg xmlns="http://www.w3.org/2000/svg" width="16" height="16" fill="currentColor" aria-hidden="true" class="yc-icon GridTableSettingsPopup-ItemIcon"><svg xmlns="http://www.w3.org/2000/svg" fill="none" viewBox="0 0 16 16"><path fill="currentColor" d="m14.12 1.625-4.14.025a.347.347 0 0 0-.355.356v.838c0 .203.152.38.355.38l1.88-.076.05.051-7.084 7.084a.385.385 0 0 0-.101.203c0 .076.05.178.101.229l.584.584c.05.05.152.101.229.101.05 0 .152-.05.203-.101l7.084-7.084.05.05-.076 1.88c0 .203.178.355.381.355h.838a.347.347 0 0 0 .356-.355l.025-4.14a.39.39 0 0 0-.38-.38Zm-1.651 7.313h-.406a.418.418 0 0 0-.407.406v3.91c0 .101-.076.152-.152.152H2.87c-.101 0-.152-.05-.152-.152V4.62c0-.076.05-.152.152-.152h3.91a.418.418 0 0 0 .407-.407v-.406a.437.437 0 0 0-.407-.406H2.72c-.686 0-1.219.559-1.219 1.219v8.937c0 .686.533 1.219 1.219 1.219h8.937c.66 0 1.219-.533 1.219-1.219V9.344a.437.437 0 0 0-.406-.406Z"/></svg></svg>
